X: 1
T: Cameron's Got His Wife Again
R: strathspey
N: Skye p.45, BSFC III-3 and IV-10, Chambers' version with C chord, S9
Z: John Chambers <jc:trillian.mit.edu>
M: C
L: 1/8
K: D
A \
| "D"{c}d>B A>F "A7"A/A/A AB/c/ | "D"d>B A>F "C"E4 \
| "D"{c}d>B A>F "A7"A>g f>e | "G"d>B "A7"A<F "D"D3 :|
g \
| "D"f>d f<a "A7"e>g f>e | "D"f>d f<a "G"B2- B>g \
| "D"f>d f<a "A7"e>g f>e | "G"d>B "A7"A<F "D"D3 ||
g \
| "D"f>d f<a "A7"e>g f>e | "D"f>d f<a "G"B2- B>g \
| "D"f>g a>f "A7"e>g f>e | "G"d>B "A7"A<F "D"D3 |]
